X:20
T:Branles
C:Michael Praetorius (1571-1621)
R:Branle double
Z:Transcrit et/ou corrig? par Michel BELLON - 2006-11-27
Z:Pour toute observation mailto:galouvielle@free.fr
M:C|
L:1/8
K:G
V:1
GABc d2B2 | cde2 d2AB | c2dc Bcd2 | c2B2 AGAF |
GABc dBcd | ecde d2AB | c2dc B2cB | AGAB G4 :|
V:2
d4d2d2 | efg2 f4 | e4g4 | g4f4 |
e4f4 | g4g2f2 | e2f2g2g2 | f4d4 :|
V:3
B4A2B2 | G2c2A2d2 | c2Bc d2B2 | e4A2d2 |
BAG2 A4 | cedc B2A2 | A2A2 e2e2 | ABcd B4 :|
V:4 K:G
G4F2G2 | E2C2D4 | A4G4 | C4D4 | 
E4D4 | C2B,A, B,C,D2 | A,2D,2 E2C2 | D4G,4 :|
<end>
<start>
